!!!OTL: 415. Staendchen im Winter.
!!!ARE: Europa, Mitteleuropa, Deutschland, Rheinland; Frankfurt a.M.
!!!SCT: B0415
!!!TXL: @@DE
!!!YEM: Copyright 1995, estate of Helmut Schaffrath.
**kern	**text
*ICvox	*
*Ivox	*
*clefG2	*
*M4/4	*
*met(c)	*
*k[f#c#]	*
*D:	*
=1	=1
!LO:TX:a:t=Mäßig bewegt.	!
{2a	Star-
4.a	-rend
8f#	vor
=2	=2
2e	Froſt
4r	.
4e	ſteh'
=3	=3
4.g	ich
8f#	vor
4g	dei-
4a	-nem
=4	=4
2g	Fen-
2f#;}	-ſter
=5	=5
{2dd	lang'
4cc#	oh-
4b	-ne
=6	=6
2.a	Troſt,
4f#	wie
=7	=7
4.e	blei-
8f#	-che
4g	Nacht-
4a	-ge-
=8	=8
2g	-ſpen-
4f#}	-ſter.
{4a	Du
=9	=9
2dd	kennſt
4.cc#	nicht
8b	die
=10	=10
(4b/	Lei-
4a)	.
4a;	-den,
4b/	die
=11	=11
(4b/	Qual
4a)	.
4e;	die
4g/	mich
=12	=12
2f#	drückt!
4r}	.
{4a	O
=13	=13
2dd	könnt'
4.cc#	ich
8b	dich
=14	=14
(4b/	mei-
4a)	.
4a;	-den,
4b/	wie
=15	=15
(4b/	wär
4a)	.
4e	ich
4g	be-
=16	=16
2f#	-glückt!
4r}	.
{4f#	Und
=17	=17
2f#	doch
4e	lieb'
4f#	ich
=18	=18
2.g	dich
4g	aus
=19	=19
4.g	rei-
8f#	-ner
4g	Her-
4a	-ʒens-
=20	=20
(2g	-gluth
4f#)}	.
{4a	für
=21	=21
2dd	dich
4.cc#	leb'
8b	ich
=22	=22
2.a	nur,
4f#	mein
=23	=23
4.b/	ein-
8a	-ʒig
4e	theu-
4g	-res
=24	=24
2f#;	Gut!
2r}	.
==	==
!!!AGN: Liebes - Lied, Staendchen, Klage
!!!GTL: Liebeslieder - Liebeslust
!!!ONB: ESAC (Essen Associative Code) Database: BOEHME
!!!AMT: simple quadruple
!!!AIN: vox
!!!EED: Helmut Schaffrath
!!!EEV: 1.0
!!Am Rhein und in Frankfurt a. M. bekannt. 
!!@@COMMENT:"Mel. nach K. Becker's Manuſkripten. Das Ständchen war um 1850-60 beliebt. Auf dieſe
!!excentriſche Liebesdeklamation ſoll in Frankfurt a. M. eine reſolute Schöne draſtiſche Bemerkungen
!!ʒum Fenſter beraus gemacht haben; ſo nach dem Anfange: "Dummer Kerl, ʒieh doch Handſchuh an
!!oder geh' heim! " etc. - Mit ähnlichem Humor ließen ſich viele andere Liebeswinſeleien gloſſiren."
!!@@END:
!!!URL-scan: https://archive.org/details/BoehmeVtLieder1895/page/n341/mode/2up
!!!ENC: Anna Maria Matuszewska
!!!EEV: 2024/08/07
*-	*-
